public/avatar/shoe/89.svg

<svg xmlns:xlink="http://www.w3.org/1999/xlink" height="38.3" width="36.05" xmlns="http://www.w3.org/2000/svg"><use height="19" transform="translate(7.9 8.7)" width="24.4" xlink:href="#a"/><defs><g id="a"><path d="m3 10.35-1.8.75-4.95 1.25-5.05.5-3.05-.25-.4-.3h-1.15l-.15-.05-.85-.25-.15-.15-.3-.15-.2-.1-.25-.35-.45-1.45-.15-1.25q0-1.55.8-2.75l.85-.85L-8.9.05q.3-.6.4-2.05l.25-1.75.2-.3Q-5.9-6.25.35-6q3.55.1 4.6 1.25l.15.45.25 3.1 2 5.9v.6l.05.45-.05 1.2-.1.25-.05.1-.1.4-.1.05v.2l-1.35 1.1Q4.7 9.6 3.7 10.1l-.3.15h.05v.1h-.6H3" fill="#020202" fill-rule="evenodd" transform="translate(15.9 6.15)"/><path d="M4.1-.55 5.95 4.8v1.9l-.05.15V7l-.05.05v.15l-1.2.9-1.7.95-.5.2h-.1l-.1.05-.35.2-3.95 1.25-5.5.75h-.7l-2.65-.25-.5-.2-1-.05-.75-.25-.5-.3-.4-1.25q-.35-1.65.4-2.95l.8-.95 5-4.5.7-3.7Q-5.8-4.25-1.5-4.45q4.35-.25 5.4.95l.2 2.95" fill="#fff" fill-rule="evenodd" transform="translate(15.9 6.15)"/><path d="M-11.6 11.7q-.7-.25-.8-1.65-.15-1.5 1.3-2.25" fill="none" stroke="#070707" stroke-linecap="round" stroke-linejoin="round" transform="translate(15.9 6.15)"/><path d="m4.65-4.75.2.45Q5.2-.2 6.1.8l.15.3 1.1 1.85q1.05 1.6 1.15 2.3l-.1.55q-.25.3-.55.2L4.4 5.2l-.25 1.1q-.25 1.65-.9 2l-.8-.05L.6 6.2-1.75 9l-.5.2-.4-.35L-3.8 6.7q-1.8 1.65-3.85 2l-.6-.25-.1-.4.05-.25.45-1.6q-3.4 1.5-4.05.6l-.2-.45.25-.55.5-.75q-2.2.5-3.55-1.35l-.15-.4.05-.25.5-.3Q-11.6 2.3-9.55.6l.75-.65q.2-.25.3-2.65l.15-1.2.1-.35q1.4-1.45 6.15-1.8 5-.4 6.75 1.3" fill="#2b0003" fill-rule="evenodd" transform="translate(15.9 6.15)"/><path d="M-1.6-4.4q4.2-.3 5.6.95L5.35 1.3q.3 1.2 2 3.45L3.9 4q-.45.3-.55 1.5-.15 1.1-.5 1.35L.6 4.55q-.25.8-2.35 2.9-.55-.7-1.3-2.5-1.25 1.75-3.7 2.1.5-.85.5-2.5-.85.55-2.5.95-1.6.35-1.25 0 .7-.55 1.1-1.9-2.85 1.45-4.25-.3 2.4-.3 5.3-2.5Q-7 .35-6.75-3-5.6-4.05-1.6-4.4" fill="#bf401f" fill-rule="evenodd" transform="translate(15.9 6.15)"/><path d="M-6.75-3Q-5.6-4.05-1.6-4.4q4.2-.3 5.6.95L5.35 1.3l1 1.7L4.7 4.1 3.9 4l-.3.5Q.25 5.25-8.25 1.05l.4-.25Q-7 .35-6.75-3" fill="#912914" fill-rule="evenodd" transform="translate(15.9 6.15)"/></g></defs></svg>

<?xml version="1.0" encoding="UTF-8" standalone="no"?>
<svg xmlns:xlink="http://www.w3.org/1999/xlink" height="38.3px" width="36.05px" xmlns="http://www.w3.org/2000/svg">
  <g transform="matrix(1.0, 0.0, 0.0, 1.0, 23.8, 14.85)">
    <use height="19.0" transform="matrix(1.0, 0.0, 0.0, 1.0, -15.9, -6.15)" width="24.4" xlink:href="#shape0"/>
  </g>
  <defs>
    <g id="shape0" transform="matrix(1.0, 0.0, 0.0, 1.0, 15.9, 6.15)">
      <path d="M3.0 10.35 L1.2 11.1 -3.75 12.35 -8.8 12.85 -11.85 12.6 -12.25 12.3 -12.3 12.3 -13.4 12.3 -13.55 12.25 -14.4 12.0 -14.55 11.85 -14.85 11.7 -15.05 11.6 -15.3 11.25 -15.75 9.8 -15.9 8.55 Q-15.9 7.0 -15.1 5.8 L-14.25 4.95 -8.9 0.05 Q-8.6 -0.55 -8.5 -2.0 L-8.25 -3.75 -8.05 -4.05 Q-5.9 -6.25 0.35 -6.0 3.9 -5.9 4.95 -4.75 L5.1 -4.3 5.35 -1.2 7.35 4.7 7.35 5.3 7.4 5.75 7.35 6.95 7.25 7.2 7.2 7.3 7.1 7.7 7.0 7.75 7.0 7.95 5.65 9.05 Q4.7 9.6 3.7 10.1 L3.4 10.25 3.45 10.25 3.45 10.35 3.15 10.35 3.0 10.35 2.85 10.35 3.0 10.35" fill="#020202" fill-rule="evenodd" stroke="none"/>
      <path d="M4.1 -0.55 L5.95 4.8 5.95 6.7 5.9 6.85 5.9 7.0 5.85 7.05 5.85 7.2 4.65 8.1 2.95 9.05 2.45 9.25 2.35 9.25 2.25 9.3 1.9 9.5 -2.05 10.75 -7.55 11.5 -8.25 11.5 -10.9 11.25 -11.4 11.05 -12.4 11.0 -13.15 10.75 -13.65 10.45 -14.05 9.2 Q-14.4 7.55 -13.65 6.25 L-12.85 5.3 -7.85 0.8 -7.15 -2.9 Q-5.8 -4.25 -1.5 -4.45 2.85 -4.7 3.9 -3.5 L4.1 -0.55" fill="#ffffff" fill-rule="evenodd" stroke="none"/>
      <path d="M-11.6 11.7 Q-12.3 11.45 -12.4 10.05 -12.55 8.55 -11.1 7.8" fill="none" stroke="#070707" stroke-linecap="round" stroke-linejoin="round" stroke-width="1.0"/>
      <path d="M4.65 -4.75 L4.85 -4.3 Q5.2 -0.2 6.1 0.8 L6.25 1.1 7.35 2.95 Q8.4 4.55 8.5 5.25 L8.4 5.8 Q8.15 6.1 7.85 6.0 L4.4 5.2 4.15 6.3 Q3.9 7.95 3.25 8.3 L2.45 8.25 0.6 6.2 -1.75 9.0 -2.25 9.2 -2.65 8.85 -3.8 6.7 Q-5.6 8.35 -7.65 8.7 L-8.25 8.45 -8.35 8.05 -8.3 7.8 -7.85 6.2 Q-11.25 7.7 -11.9 6.8 L-12.1 6.35 -11.85 5.8 -11.35 5.05 Q-13.55 5.55 -14.9 3.7 L-15.05 3.3 -15.0 3.05 -14.5 2.75 Q-11.6 2.3 -9.55 0.6 L-8.8 -0.05 Q-8.6 -0.3 -8.5 -2.7 L-8.35 -3.9 -8.25 -4.25 Q-6.85 -5.7 -2.1 -6.05 2.9 -6.45 4.65 -4.75" fill="#2b0003" fill-rule="evenodd" stroke="none"/>
      <path d="M-1.6 -4.4 Q2.6 -4.7 4.0 -3.45 L5.35 1.3 Q5.65 2.5 7.35 4.75 L3.9 4.0 Q3.45 4.3 3.35 5.5 3.2 6.6 2.85 6.85 L0.6 4.55 Q0.35 5.35 -1.75 7.45 -2.3 6.75 -3.05 4.95 -4.3 6.7 -6.75 7.05 -6.25 6.2 -6.25 4.55 -7.1 5.1 -8.75 5.5 -10.35 5.85 -10.0 5.5 -9.3 4.95 -8.9 3.6 -11.75 5.05 -13.15 3.3 -10.75 3.0 -7.85 0.8 -7.0 0.35 -6.75 -3.0 -5.6 -4.05 -1.6 -4.4" fill="#bf401f" fill-rule="evenodd" stroke="none"/>
      <path d="M-6.75 -3.0 Q-5.6 -4.05 -1.6 -4.4 2.6 -4.7 4.0 -3.45 L5.35 1.3 6.35 3.0 4.7 4.1 3.9 4.0 3.6 4.5 Q0.25 5.25 -8.25 1.05 L-7.85 0.8 Q-7.0 0.35 -6.75 -3.0" fill="#912914" fill-rule="evenodd" stroke="none"/>
    </g>
  </defs>
</svg>
